X: 17
T:Barbarini's Tambourine
M:2/4
L:1/8
Z:Alf Warnock - alf0@rogers.com
K:D
|:f/g/|"D"ad dd|de ef|fe/f/ "G"g/f/e/d/|"A"eA Af/g/|
"D"ad dd|de ef|"D"fe/f/ "G"g/f/e/d/|"A"e3:|
|:c/d/|"A"eA AA|A3d/e/|"Bm"fB BB|B3e/f/|
"A/C#"gc cf/g/|"D"ad df/g/|"G"bg "A"c'a|"D"d'c'/b/ ag|
fe/d/ "A"ed/c/|"D"dc/B/ "G"AG|"D"Fd "A"Ec|"D"D3:|
% C:\aaa\EnglishCountry\ECD02.abc
